X: 18
M:4/4
L:1/8
K:G
|:d|gfga "tr"ge d2|eaab agef|1gfge dcBG|AcBA GE E:|
2gfge dBgB|AcBA GE E||

